X:1
T: Walking the Fence
C: Rick Gagne
N: 1981 on whistle
R: hornpipe
M: 4/4
K: D
fg | "A"a2ag "A5"fage | "D5"dcde "D"fdef | "Em"gfed "A"cABc | "D"dcde "Bm"fefg |
"A"a2ag "C#mb6"f/g/age | "D"dcde "Bm"fdef | "Em"gfed "A"cAA/B/c | "D"dAFA "D"d2 :|
fd | "A"e2ed "A5"cABc | "B5"dcde "D"fedf | "C#mb6"efed "A5"cAA/B/c |"D"dcde "Bm"f2a2 |
"A"e2ed "A5"cAA/B/c | "D"dcde "Bm"fdef | "Em"gfed "A"cAA/B/c | "D"dAFA "D"d2 :|
